!!!COM: Palestrina, Giovanni Perluigi da
!!!OPR: Missa In duplicibus minoribus (II)
!!!OTL: Agnus
**kern	**kern	**kern	**kern	**kern
*Ibass	*Itenor	*Itenor	*Icalto	*Icant
!Bassus	!Tenor 2	!Tenor 1	!Altus	!Cantus
*clefF4	*clefGv2	*clefGv2	*clefG2	*clefG2
*k[]	*k[]	*k[]	*k[]	*k[]
*E:phr	*E:phr	*E:phr	*E:phr	*E:phr
*M4/2	*M4/2	*M4/2	*M4/2	*M4/2
=1	=1	=1	=1	=1
0r	0r	0r	0e	0r
=2	=2	=2	=2	=2
0r	0r	0r	1e	0r
.	.	.	1d	.
=3	=3	=3	=3	=3
0r	0r	0A	1.e	0r
.	.	.	2d	.
=4	=4	=4	=4	=4
0r	1r	1A	1c	0r
.	[1e	1G	1B	.
=5	=5	=5	=5	=5
0r	1e]	1.A	1.c	0a
.	1e	.	.	.
.	.	2G	2B	.
=6	=6	=6	=6	=6
0r	1d	1F	1A	1a
.	[1e	1E	1B	1g
=7	=7	=7	=7	=7
0r	2e]	1F	1A	1.a
.	2d	.	.	.
.	2c	1E	2r	.
.	[2B	.	2B	2g
=8	=8	=8	=8	=8
0r	4B]	1D	2.d	1f
.	4A	.	.	.
.	1A	.	.	.
.	.	.	4c	.
.	.	1E	1B	2e
.	2G#	.	.	2b
=9	=9	=9	=9	=9
0A	4A	2.e	2.A	2cc
.	4B	.	.	.
.	4c	.	.	1a
.	4d	4d	4B	.
.	1e	[1c	4c	.
.	.	.	4d	.
.	.	.	[2e	4g
.	.	.	.	4f
=10	=10	=10	=10	=10
1A	1c	2c]	2e]	4e
.	.	.	.	4c
.	.	2A	2f#	1cc
1G	1d	2r	2.g	.
.	.	2d	.	2b
.	.	.	4f	.
=11	=11	=11	=11	=11
1.A	2r	2c	2.e	1cc
.	2c	4A	.	.
.	.	4B	4d	.
.	2A	4c	2c	1r
.	.	4d	.	.
2G	2B	[2e	2B	.
=12	=12	=12	=12	=12
0F	4c	2e]	1A	1r
.	4B	.	.	.
.	4A	4d	.	.
.	4G	4c	.	.
.	2.A	1d	1r	1a
.	4B	.	.	.
=13	=13	=13	=13	=13
1E	4c	2e	0r	1g
.	4B	.	.	.
.	1e	2B	.	.
1A	.	1c	.	1e
.	4d	.	.	.
.	4c	.	.	.
=14	=14	=14	=14	=14
1G	2B	2r	1d	0g
.	2G	2B	.	.
1E	1r	2c	2e	.
.	.	2e	2c	.
=15	=15	=15	=15	=15
0G	0r	2d	2B	[0g
.	.	2c	2e	.
.	.	2B	2d	.
.	.	2e	[2c	.
=16	=16	=16	=16	=16
1G	2r	1d	2c]	0g]
.	2d	.	2B	.
1C	2e	2.c	2c	.
.	2c	.	[2e	.
.	.	8B	.	.
.	.	8A	.	.
=17	=17	=17	=17	=17
1E	2B	1G	4e]	1r
.	.	.	4f	.
.	2e	.	2g	.
1F	2d	1r	2f	1a
.	[2c	.	2e	.
=18	=18	=18	=18	=18
1G	2c]	0r	2d	1g
.	2B	.	1e	.
1A	1c	.	.	1e
.	.	.	4d	.
.	.	.	4c	.
=19	=19	=19	=19	=19
1G	2r	2r	2B	0g
.	2G	2d	2B	.
1r	2.E	2e	2c	.
.	.	2c	2e	.
.	4F	.	.	.
=20	=20	=20	=20	=20
1r	2G	2B	2d	0g
.	2C	2e	1c	.
2r	1G	2d	.	.
2G	.	[2e	2B	.
=21	=21	=21	=21	=21
2A	0r	2e]	1A	1c
2F	.	2A	.	.
2E	.	2B	2G	2.e
2A	.	2c	[2c	.
.	.	.	.	4f
=22	=22	=22	=22	=22
2G	1r	1d	2c]	0g
4G	.	.	2B	.
4F	.	.	.	.
4E	1C	1e	[1c	.
4D	.	.	.	.
4C	.	.	.	.
4BB	.	.	.	.
=23	=23	=23	=23	=23
1AA	2.E	2r	1c]	2a
.	.	2A	.	1cc
.	4F	.	.	.
2GG	1G	1d	2r	.
[2G	.	.	2d	2b
=24	=24	=24	=24	=24
4G]	1A	1D	2d	2a
8F#	.	.	.	.
8E	.	.	.	.
2F#	.	.	2A	2.dd
2G	1G	1d	4B	.
.	.	.	4c	4cc
2GG	.	.	4d	2b
.	.	.	4e	.
=25	=25	=25	=25	=25
0D	2A	2d	2f#	2a
.	2B	2d	1g	2g
.	1A	1d	.	1a
.	.	.	2f#	.
=26	=26	=26	=26	=26
1GG	2.G	2B	1g	1.b
.	.	1d	.	.
.	4F	.	.	.
[1G	1E	.	1r	.
.	.	2c	.	2cc
=27	=27	=27	=27	=27
2G]	1D	2B	0d	1dd
2F#	.	2A	.	.
2G	2r	2B	.	1r
2D	[2A	2A	.	.
=28	=28	=28	=28	=28
1E	2A]	1r	1B	0r
.	2G#	.	.	.
1AA	2A	2r	[1c	.
.	2E	[2e	.	.
=29	=29	=29	=29	=29
1A	1F	2e]	2c]	0r
.	.	2d	4B	.
.	.	.	4A	.
1AA	2E	2e	1c	.
.	[2A	2E	.	.
=30	=30	=30	=30	=30
1D	2A]	1F	1d	0r
.	2B	.	.	.
1C	1c	2G	[1e	.
.	.	[2c	.	.
=31	=31	=31	=31	=31
0r	1G	2c]	2e]	0g
.	.	2B	2d	.
.	2r	2c	2e	.
.	[2d	2G	2d	.
=32	=32	=32	=32	=32
0r	2d]	1A	1r	1e
.	2c#	.	.	.
.	2d	1D	2r	[1f
.	2A	.	[2a	.
=33	=33	=33	=33	=33
1r	1B-	1r	2a]	2f]
.	.	.	2g	4e
.	.	.	.	4d
1D	1A	2r	2a	1f
.	.	[2D	2A	.
=34	=34	=34	=34	=34
1GG	1r	2D]	1B-	1g
.	.	2G	.	.
2.D	2r	2.F	2A	[1a
.	[2d	.	[2f	.
4E	.	4G	.	.
=35	=35	=35	=35	=35
4F	2d]	1A	2f]	0a]
4G	.	.	.	.
2A	2c#	.	2e	.
2D	2d	1F	2f	.
2F	2A	.	2c	.
=36	=36	=36	=36	=36
2.C	1c	2r	1.e	[0g
.	.	1c	.	.
4D	.	.	.	.
4E	1G	.	.	.
4F	.	.	.	.
2G	.	2B	2d	.
=37	=37	=37	=37	=37
1C	2r	2c	1e	0g]
.	1c	2C	.	.
1r	.	1G	1d	.
.	2B	.	.	.
=38	=38	=38	=38	=38
1D	2A	2.A	1d	1f
.	2D	.	.	.
.	.	4B	.	.
1C	1E	1c	2G	[1e
.	.	.	[2A	.
=39	=39	=39	=39	=39
0D	0F	0A	2A]	2e]
.	.	.	2D	4d
.	.	.	.	4c
.	.	.	2r	1d
.	.	.	2A	.
=40	=40	=40	=40	=40
2.AA	0E	2r	2.c	2e
.	.	1A	.	1cc
4BB	.	.	4d	.
4C	.	.	1e	.
4D	.	.	.	.
2E	.	2G#	.	2b
=41	=41	=41	=41	=41
1AA	2r	1A	1.e	1cc
.	1A	.	.	.
1E	.	1B	.	1b
.	2G#	.	2e	.
=42	=42	=42	=42	=42
0AA	2A	0c	0e	0a
.	2E	.	.	.
.	1A	.	.	.
=43	=43	=43	=43	=43
[0E	[0G#	[0B	[0e	[0b
=44	=44	=44	=44	=44
0E]	0G#]	0B]	0e]	0b]
==	==	==	==	==
*-	*-	*-	*-	*-
!!!CDT: 1525/^1526/-1594/2/2
!!!OCY: Italia
!!!AGN: Mass (Paraphrase)
!!!AST: renaissance, vocal
!!!ASW: Gregorian Mass
!!!PWK: Masses, Book Mantuan I
!!!RNB: Cadence finals: A
!!!YOR: Le Opere Complete, v. 18, p. 1
!!!YOO: Rome, Italy: Fratelli Scalera
!!!END: 1992//
!!!EED: John Miller
!!!YEC: Copyright 2000, John Miller
!!!YEN: United States of America
!!!YEM: Rights to all derivative electronic formats reserved.
!!!YEM: Refer to licensing agreement for further details.
!!!YEM: This file must be accompanied by the licensing agreement.
!!!YEM: A copy of the licensing agreement may be found at http://www.music-cog.ohio-state.edu/HumdrumDatabases/Palestrina/license.txt
!!!EMD: converted to Humdrum by Bret Aarden
